X: 1
T: Ruth's Quadrille
%O: from Viola Ruth
B: Lee Owens "Advanced Square Dance Figures of the West and Southwest" p.100
N: Did Ruth compose this tune?
R: jig
Z: 2010 John Chambers <jc:trillian.mit.edu>
M: 6/8
L: 1/8
K: A
((3e/f/g/) |\
"A"a2c cBA | cBA E2((3e/f/g/) | a2c cBA | "E7"cBA B2((3e/f/g) |
"A"a2c cBA | cBA E2(A/B/) | "E7"c2c BcB | "A"A3- A2 :|
|: z |\
"A"[ec][ec][ec] [ec][ec][ec] | vfec e3 | [ec][ec][ec] [ec][ec][ec] | "E7"fec B3 |
"A"[ec][ec][ec] [ec][ec][ec] | fec e2((3e/f/g/) | "E7"a2c c2c | BcB "A"A2 :|

%%sep 1 1 500

